X:1
T:Stilla Stunder, 87.87 D
T:Stilla Stunder, 87.87 D
T:Johannes Alfred Hultman (1861-1942)
T:Public Domain Courtesy of the Cyber Hymnal™
C:Johannes Alfred Hultman (1861-1942)
Z:Public Domain
Z:Courtesy of the Cyber Hymnal™
%%score ( 1 2 ) ( 3 4 )
L:1/8
Q:1/4=100
M:3/4
K:F
V:1 treble 
V:2 treble 
V:3 bass 
V:4 bass 
V:1
 F>[FG] | [FA]3 F [FG][FA] | [FB]2 [FB]2 [GB]>[FA] | [EG]3 [EG] [Fc][GB] | [FA]4 F>[FG] | %5
 [FA]3 F [FG][FA] | [FB]2 [FB]2 [GB]>[FA] | [EG]3 C [FA][EG] | F4 [FA]>[GB] | [Ac]3 [FA] [FB][Fc] | %10
 [Fd]2 [Fd]2 [Fd]>[Fd] | [Fc]3 [Fd] [Fc][FA] | [EG]4 F>[FG] | [FA]3 F [FG][FA] | %14
 [FB]2 [FB]2 [GB]>[FA] | [EG]3 C [FA][EG] | F4 |] %17
V:2
 F3/2 x/ | x3 F x2 | x6 | x6 | x4 F3/2 x/ | x3 F x2 | x6 | x3 C x2 | F4 x2 | x6 | x6 | x6 | %12
 x4 F3/2 x/ | x3 F x2 | x6 | x3 C x2 | F4 |] %17
V:3
 [F,A,]>[F,B,] | [F,C]3 [F,A,] [F,B,][F,C] | [B,,D]2 [B,,D]2 [G,,B,]>[G,,=B,] | %3
 [C,C]3 [C,C] [D,C][E,C] | [F,C]4 [F,A,]>[F,B,] | [F,C]3 [F,A,] [F,B,][F,C] | %6
 [B,,D]2 [B,,D]2 [G,,B,]>[G,,=B,] | [C,C]3 [C,C] [C,C][C,B,] | [F,A,]4 [F,C]>[F,C] | %9
 [F,F]3 [F,C] [G,C][A,C] | B,2 B,2 [B,,B,]>[B,,B,] | [F,A,]3 [F,B,] [F,A,][F,C] | %12
 [C,C]4 [F,A,]>[F,B,] | [F,C]3 [F,A,] [F,B,][F,C] | [B,,D]2 [B,,D]2 [G,,B,]>[G,,=B,] | %15
 [C,C]3 [C,C] [C,C][C,B,] | [F,A,]4 |] %17
V:4
 x2 | x6 | x6 | x6 | x6 | x6 | x6 | x6 | x6 | x6 | B,2 B,2 x2 | x6 | x6 | x6 | x6 | x6 | x4 |] %17

